X: 6073
T: Captain Barny
R: three-two
M: 3/2
K: Bminor
|:ABfB g3a fedB|B2fB g3a (3efe dB|
BffB g3a fedB|e2dc Aedc AEDE:|
B3d cABe dcAE|BeeB ffBg gBab|
B3d cABe dcAE|e2dc Aedc AEDE|
ABdB cABe dcAE|BeeB ffBg gBab|
BABd ddBe dcAE|e2dc Aedc Accc|

